!!!COM: Frescobaldi, Girolamo
!!!CDT: 1583///-1643
!!!ONM: No. 38
!!!OTL: No. 38: Canzon Quarta &agrave; 4. Canto, Alto, Tenore, Basso
!!!OPR: Canzoni da sonare a una, due, tre et quattro, libro primo
!!!PPP: Venezia
!!!PDT: 1634
!!!URL: http://icking-music-archive.org/ByComposer/Frescobaldi.html
!!!ONB: Andrea Friggi, ed.
**kern	**kern	**kern	**kern	**kern
!Basso ad Organo	!Basso	!Tenore	!Alto	!Soprano
*staff5	*staff4	*staff3	*staff2	*staff1
*Icello	*Icello	*Iviola	*Ivioln	*Ivioln
*clefC4	*clefF4	*clefC3	*clefG2	*clefG2
*k[]	*k[]	*k[]	*k[]	*k[]
*met(C)	*met(C)	*met(C)	*met(C)	*met(C)
*M4/4	*M4/4	*M4/4	*M4/4	*M4/4
*MM120	*MM120	*MM120	*MM120	*MM120
=1-	=1-	=1-	=1-	=1-
2d\	1r	2d\	1r	2r
4A\	.	4A/	.	2a/
4d\	.	4d\	.	.
=2	=2	=2	=2	=2
4d\	1r	4.f\	1r	4d/
4f\	.	.	.	4a/
.	.	8f\	.	.
4e\	.	4e\	.	4.cc\
8d\L	.	8d\L	.	.
8c\J	.	8c\J	.	8cc\
=3	=3	=3	=3	=3
2G/	1r	4d\	2r	4b\
.	.	4e\	.	8a/L
.	.	.	.	8g/J
2d\	.	4f\	2d/	8a/L
.	.	.	.	8g/
.	.	8e\L	.	8a/
.	.	8d\J	.	8b/J
=4	=4	=4	=4	=4
4A\	1r	4c\	4A/	4cc\
4B-\	.	4B-/	4d/	4g/
4A\	.	8A/L	4.f/	4a/
.	.	8D/J	.	.
4d\	.	4d\	.	[4b-\
.	.	.	8f/	.
=5	=5	=5	=5	=5
4c\	1r	4c\	4e/	8b-/L]
.	.	.	.	8a/J
8B\L	.	8B/L	8d/L	2a/
8A\J	.	8A/J	8c/J	.
2B-\	.	2B-/	4.d/	.
.	.	.	.	4g/
.	.	.	8e/	.
=6	=6	=6	=6	=6
*clefF4	*	*	*	*
2D\	2D\	8A/L	4f/	1a
.	.	8G/	.	.
.	.	8A/	8e/L	.
.	.	8B/J	8d/J	.
4AA/	4AA/	4c#\	4e/	.
4D\	4D\	4d\	4f/	.
=7	=7	=7	=7	=7
4.F\	4.F\	4.A/	4c/	1r
.	.	.	4d/	.
8F\	8F\	8A/	.	.
4E\	4E\	4B/	8e/L	.
.	.	.	8g/	.
8D/L	8D/L	4c\	8f/	.
8C/J	8C/J	.	8e/J	.
=8	=8	=8	=8	=8
[1D	[1D	4F/	2f/	4r
.	.	2A/	.	4dd\
.	.	.	4r	4a/
.	.	4B-/	4d/	4dd\
=9	=9	=9	=9	=9
2D\]	2D\]	2F/	4A/	4.ff\
.	.	.	4d/	.
.	.	.	.	8ff\
2C/	2C/	4G/	4.e/	4ee\
.	.	[4A/	.	8dd\L
.	.	.	8e/	8cc\J
=10	=10	=10	=10	=10
2BB-/	2BB-/	4A/]	4f/	4dd\
.	.	4G/	4g/	2dd\
2AA/	2AA/	2A/	4f/	.
.	.	.	4e/	4cc#\
=11	=11	=11	=11	=11
1D	1D	2A/	4f#/	8dd/L
.	.	.	.	8d/
.	.	.	4d/	8f#/
.	.	.	.	8g/J
.	.	4r	4A/	4a/
.	.	4A/	4d/	8fn/L
.	.	.	.	8g/J
=12	=12	=12	=12	=12
4D\	1r	4D/	4.f/	8a\L
.	.	.	.	8b\
4A\	.	4A/	.	8cc\
.	.	.	8f/	8dd\J
2c\	.	4.c\	4e/	4ee\
.	.	.	8d/L	8ff\L
.	.	8c\	8c/J	8ee\J
=13	=13	=13	=13	=13
4B\	2r	4B/	2g/	4dd\
8A\L	.	8A/L	.	2ee\
8G\J	.	8G/J	.	.
4A\	4r	4A/	2f/	.
4D\	4D\	4B/	.	4dd\
=14	=14	=14	=14	=14
4AA/	4AA/	8c/L	1e	2.cc\
.	.	8A/	.	.
4A\	4A\	8c/	.	.
.	.	8d/J	.	.
2c\	4.c\	4e\	.	.
.	.	8f\L	.	4a/
.	8c\	8e\J	.	.
=15	=15	=15	=15	=15
2B\	4.B\	8d\L	2r	4a/
.	.	8c\J	.	.
.	.	4d\	.	4g#/
.	8B\	.	.	.
4.A\	4.A\	4c\	4r	2a/
.	.	[4c\	4e/	.
8G\	8G\	.	.	.
=16	=16	=16	=16	=16
4.F\	8F\L	8c/L]	4A/	1r
.	8G\	8B/	.	.
.	8F\	8A/	4d/	.
8E\	8E\J	8G/J	.	.
2D\	4D\	4F/	4.f/	.
.	4D\	8A/L	.	.
.	.	8B/J	8f/	.
=17	=17	=17	=17	=17
2C/	2C/	8c/L	4e/	4r
.	.	8G/J	.	.
.	.	2A/	8d/L	4a/
.	.	.	8c/J	.
2BB-/	2BB-/	.	4f/	4d/
.	.	[4G/	4g/	4dd\
=18	=18	=18	=18	=18
2AA/	2AA/	4G/]	4a/	4.cc\
.	.	4F#/	4A/	.
.	.	.	.	8cc\
2GG/	2GG/	[2G/	4d/	4b-\
.	.	.	8e/L	8cc\L
.	.	.	8d/J	8bn\J
=19	=19	=19	=19	=19
1AA	1AA	4G/]	8c#/L	1a
.	.	.	8A/J	.
.	.	4F/	2d/	.
.	.	2E/	.	.
.	.	.	4c#/	.
=20	=20	=20	=20	=20
1D	1D	1F#	1d	1a
=21	=21	=21	=21	=21
*M3/1	*M3/1	*M3/1	*M3/1	*M3/1
1D	0.r	0.r	1r	1a
1D	.	.	1r	1d
1D	.	.	1d	1dd
=22	=22	=22	=22	=22
1.A	0.r	0.r	1A	1.cc
.	.	.	1c	.
2A\	.	.	.	2cc\
2G\	.	.	1d	2b\
2F\	.	.	.	2a/
=23	=23	=23	=23	=23
1E	0.r	1r	1e	2.g/
.	.	.	.	4a/
1D	.	1r	1d	2.f/
.	.	.	.	4g/
1A	.	1A	1c#	1e
=24	=24	=24	=24	=24
1D	0.r	1D	1.d	0f
1F	.	1F	.	.
.	.	.	2d/	.
1G	.	1G	2c/	1r
.	.	.	2B/	.
=25	=25	=25	=25	=25
0A	0.r	0A	1c	1r
.	.	.	1e	1r
1A	.	1A	[1f	1a
=26	=26	=26	=26	=26
0B-	0.r	0B-	2f/]	1d
.	.	.	2e/	.
.	.	.	2d/	1f
.	.	.	2c/	.
1B-	.	1B-	1d	1g
=27	=27	=27	=27	=27
0A	0.r	0A	1.c	2.a/
.	.	.	.	4b\
.	.	.	.	2cc\
.	.	.	1f	2dd\
1G	.	1G	.	2b-\
.	.	.	2e/	2cc\
=28	=28	=28	=28	=28
1D	1D	0A	1.f	1a
1AA	1AA	.	.	1cc
.	.	.	2f/	.
1A	1A	1c	2e/	1cc
.	.	.	2f#/	.
=29	=29	=29	=29	=29
1.G	1.G	1d	0g	1.b
.	.	1d	.	.
2G\	2G\	.	.	2b\
2F\	2F\	1e	1r	1cc#
2E\	2E\	.	.	.
=30	=30	=30	=30	=30
0.D	0.D	0f	1d	0dd
.	.	.	1A	.
.	.	1r	1f	1a
=31	=31	=31	=31	=31
1A	0.r	1A	1e	0cc
1D	.	1D	1.f	.
1D	.	1d	.	[1b
.	.	.	2d/	.
=32	=32	=32	=32	=32
1.C	0.r	1.c	1.e	2b\]
.	.	.	.	2a/
.	.	.	.	1a
2AA/	.	2A/	2f/	.
1BB-	.	1B-	2d/	1g
.	.	.	2e/	.
=33	=33	=33	=33	=33
1.F	1r	1.A	2c/	1.a
.	.	.	2A/	.
.	1r	.	1f	.
2F\	.	2F/	.	2a/
1C	1C	1c	1e	1g
=34	=34	=34	=34	=34
1FF	1FF	0c	0f	1.a
1F	1F	.	.	.
.	.	.	.	2a/
1E	1E	1G	1g	2b\
.	.	.	.	2cc#\
=35	=35	=35	=35	=35
0D	2D\	0A	0f	1.dd
.	2E\	.	.	.
.	2F\	.	.	.
.	2D\	.	.	2dd\
1AA	1A	1A	1e	1cc#
=36	=36	=36	=36	=36
*met(C)	*met(C)	*met(C)	*met(C)	*met(C)
*M4/4	*M4/4	*M4/4	*M4/4	*M4/4
2D\	2D\	1A	2f/	2dd\
2C#/	2C#/	.	[2e/	2ee\
=37	=37	=37	=37	=37
1D	1D	2r	4e/]	2a/
.	.	.	8d/L	.
.	.	.	8c/J	.
.	.	[2F/	2d/	[2a/
=38	=38	=38	=38	=38
1BB-	1BB-	4F/]	1d	4a/]
.	.	8E/L	.	8g/L
.	.	8D/J	.	8f/J
.	.	[2B-/	.	[2g/
=39	=39	=39	=39	=39
2.C/	2.C/	4B-/]	4e/	4g/]
.	.	4A/	2f/	4a/
.	.	4G/	.	2cc\
4C/	4C/	[4c\	4e/	.
=40	=40	=40	=40	=40
4D\	4D\	4c\]	1d	4f#/
4GG/	4GG/	4B-/	.	2g/
2D\	2D\	2A/	.	.
.	.	.	.	4f#/
=41	=41	=41	=41	=41
1GG	1GG	1B	1d	1g
=42	=42	=42	=42	=42
4r	4r	4r	4r	4r
4C/	4C/	4c\	4e/	4g/
4.C/	4.C/	4.c\	4.e/	4.g/
8AA/	8AA/	8c\	8e/	8cc\
=43	=43	=43	=43	=43
4D\	4D\	4F/	4f/	4a/
4BB-/	4BB-/	4G/	8g/L	4b-\
.	.	.	8f/J	.
2C/	2C/	2G/	2e/	2g/
=44	=44	=44	=44	=44
4r	4r	4r	4r	4r
4FF/	4FF/	4c\	4f/	4a/
4.C/	4.C/	4.c\	4.e/	4.g/
8AA/	8AA/	8c\	8e/	8cc\
=45	=45	=45	=45	=45
4D\	4D\	4F/	4f/	4a/
4BB-/	4BB-/	4B-/	4d/	4dd\
2C/	2C/	4G/	2e/	4.cc\
.	.	4c\	.	.
.	.	.	.	8b-\
=46	=46	=46	=46	=46
1FF	1FF	1c	1f	1a
=47	=47	=47	=47	=47
2F\	1r	1r	4r	4.a/
.	.	.	4f/	.
.	.	.	.	8a/
4E\	.	.	4e/	8b\L
.	.	.	.	8cc\
4D\	.	.	4d/	8dd\
.	.	.	.	8a\J
=48	=48	=48	=48	=48
4A\	4r	4.A/	4e/	2cc\
4F\	4F\	.	4a/	.
.	.	8A/	.	.
4E\	4E\	8B/L	4g/	2r
.	.	8c#/	.	.
4D\	4D\	8d/	4f/	.
.	.	8B/J	.	.
=49	=49	=49	=49	=49
4.AA/	4.AA/	2c\	2e/	4r
.	.	.	.	4a/
8AA/	8AA/	.	.	.
8BB/L	8BB/L	4B/	2d/	4g/
8C/	8C/	.	.	.
8D/	8D/	4A/	.	4f/
8AA/J	8AA/J	.	.	.
=50	=50	=50	=50	=50
4C/	4C/	2.G/	1r	4.e/
4BB/	4BB/	.	.	.
.	.	.	.	8d/
4C/	4C/	.	.	8e/L
.	.	.	.	8f/
4E\	4E\	4G/	.	8g/
.	.	.	.	8e/J
=51	=51	=51	=51	=51
4D\	4D\	4.A/	2r	8f/L
.	.	.	.	8g/J
4F\	4F\	.	.	2a/
.	.	8B/	.	.
2E\	2E\	4c\	4r	.
.	.	4B/	4e/	4g#/
=52	=52	=52	=52	=52
2F\	2F\	2A/	4d/	2a/
.	.	.	4c/	.
[2BB-/	[2BB-/	4.B-/	8d/L	[2g/
.	.	.	8e/J	.
.	.	.	[4f/	.
.	.	8A/	.	.
=53	=53	=53	=53	=53
4BB-/]	4BB-/]	4G/	4f/]	4g/]
4C/	4C/	4G/	4e/	4g/
4.F\	4.F\	4F/	2f/	2a/
.	.	4f\	.	.
8F\	8F\	.	.	.
=54	=54	=54	=54	=54
8G\L	8G\L	4e\	2r	2r
8A\	8A\	.	.	.
8B-\	8B-\	4d\	.	.
8G\J	8G\J	.	.	.
4A\	4A\	2c\	4r	4.cc\
4A\	4A\	.	4c/	.
.	.	.	.	8cc\
=55	=55	=55	=55	=55
4G\	4G\	2r	4B-/	8dd\L
.	.	.	.	8ee\
4F\	4F\	.	4A/	8ff\
.	.	.	.	8dd\J
2C/	2C/	4.G/	2c/	4ee\
.	.	.	.	4g/
.	.	8G/	.	.
=56	=56	=56	=56	=56
4A\	1r	8A/L	4.c/	4f/
.	.	8B/	.	.
4A\	.	8c/	.	4e/
.	.	8A/J	8c/	.
4.B-\	.	4.B-/	8d/L	[2g/
.	.	.	8e/J	.
.	.	.	[4f/	.
8A\	.	8A/	.	.
=57	=57	=57	=57	=57
4G\	1r	8B-/L	4f/]	4g/]
.	.	8G/	.	.
4C/	.	8c/	4e/	4g/
.	.	8C/J	.	.
2F\	.	2F/	2f/	8a/L
.	.	.	.	8b/
.	.	.	.	8cc/
.	.	.	.	8a/J
=58	=58	=58	=58	=58
2G\	1r	4.G/	8r	2b-\
.	.	.	8d/	.
.	.	.	4g/	.
.	.	8G/	.	.
4.A\	.	4.A/	8r	2cc\
.	.	.	8c/	.
.	.	.	4f/	.
8F\	.	8F/	.	.
=59	=59	=59	=59	=59
2BB-/	4r	2B-/	4.d/	4r
.	4BB-/	.	.	4dd\
.	.	.	8d/	.
4AA/	4AA/	4c\	8e/L	4cc\
.	.	.	8f/	.
4GG/	4GG/	4d\	8g/	4b-\
.	.	.	8e/J	.
=60	=60	=60	=60	=60
4.D\	4.D\	4r	2f#/	2a/
.	.	4d\	.	.
8D\	8D\	.	.	.
4E\	8E\L	4c\	2g/	2r
.	8F\	.	.	.
4G\	8G\	4B-/	.	.
.	8E\J	.	.	.
=61	=61	=61	=61	=61
4.F#\	4.F#\	4A/	4r	1r
.	.	8d\L	4a/	.
8F#\	8F#\	8c\J	.	.
4G\	4G\	4B/	4.g/	.
4G\	4G\	8e\L	.	.
.	.	8d\J	8f/	.
=62	=62	=62	=62	=62
2A\	2A\	2c#\	4.e/	4r
.	.	.	.	4ee\
.	.	.	8e/	.
2D\	2D\	2d\	8f#/L	4dd\
.	.	.	8g/	.
.	.	.	8a/	4cc\
.	.	.	8f#/J	.
=63	=63	=63	=63	=63
4E\	4E\	1r	4g#/	4b\
8D/L	8D/L	.	2a/	4cc\
8C/J	8C/J	.	.	.
4D\	8D/L	.	.	2b\
.	8BB/	.	.	.
4E\	8E/	.	4g#/	.
.	8EE/J	.	.	.
=64	=64	=64	=64	=64
4AA/	4AA/	4.A/	2a/	2cc#\
4A\	4A\	.	.	.
.	.	8A/	.	.
4G\	4G\	8B/L	2r	4r
.	.	8c/	.	.
4F\	4F\	8d/	.	4a/
.	.	8A/J	.	.
=65	=65	=65	=65	=65
4E\	4E\	8B/L	2r	4g/
.	.	8G/	.	.
4D\	4D\	8A/	.	4f/
.	.	8B/J	.	.
2A\	2A\	4c\	4.c/	4e/
.	.	4A/	.	4cc\
.	.	.	8c/	.
=66	=66	=66	=66	=66
4G\	2r	4G/	8d/L	4b-\
.	.	.	8e/	.
4F\	.	4F/	8f/	4a/
.	.	.	8d/J	.
4.C/	4.C/	4G/	4.e/	4g/
.	.	4c\	.	4ee\
8C/	8C/	.	8e/	.
=67	=67	=67	=67	=67
4D\	8D\L	2A/	8f#/L	4dd\
.	8E\	.	8g/J	.
4F\	8F\	.	2a/	4cc\
.	8D\J	.	.	.
4E\	4E\	2r	.	2b\
8BB/L	8BB/L	.	[4g/	.
8E/J	8E/J	.	.	.
=68	=68	=68	=68	=68
4C#/	4C#/	2r	4g/]	2a/
8AA/L	8AA/L	.	2f/	.
8D/J	8D/J	.	.	.
4BB-/	4BB-/	4.G/	.	2g/
8GG/L	8GG/L	.	4e/	.
8Cn/J	8Cn/J	8G/	.	.
=69	=69	=69	=69	=69
2FF/	4.FF/	8A/L	2f/	4f/
.	.	8B/	.	.
.	.	8c/	.	4a/
.	8FF/	8A/J	.	.
8GG/L	8GG/L	8B/L	[2d/	2g/
8AA/	8AA/	8c/J	.	.
8BB-/	8BB-/	4d\	.	.
8GG/J	8GG/J	.	.	.
=70	=70	=70	=70	=70
1AA	1AA	1A	2d/]	8f\L
.	.	.	.	8ff\
.	.	.	.	8ee\
.	.	.	.	8dd\J
.	.	.	2c#/	4ee\
.	.	.	.	4a/
=71	=71	=71	=71	=71
1D	1D	1F#	1d	1a
=72	=72	=72	=72	=72
*clefC4	*M3/2	*M3/2	*M3/2	*M3/2
*M3/2	*	*	*	*
1d	1.r	2r	2r	2r
.	.	2r	2r	2r
2d\	.	2d\	2f/	2a/
=73	=73	=73	=73	=73
2.c\	1.r	2.c\	2.e/	2.cc\
4A\	.	4A/	4f/	4cc\
2B-\	.	2B-/	2d/	2dd\
=74	=74	=74	=74	=74
2.G/	1.r	2.G/	2.g/	2.b-\
4A\	.	4A/	4e/	4cc\
2F/	.	2F/	2f/	2a/
=75	=75	=75	=75	=75
2.c\	1.r	2.c\	2.e/	2.g/
4A\	.	4A/	4f/	4a/
4B-\	.	4B-/	4d/	4f/
4G/	.	4G/	4e/	4g/
=76	=76	=76	=76	=76
1A	2r	1A	1c#	2.e/
.	2r	.	.	.
.	.	.	.	4e/
*clefF4	*	*	*	*
2D\	2D\	2A/	2d/	2f#/
=77	=77	=77	=77	=77
2.G\	2.G\	2.B/	2.d/	2.g/
4E\	4E\	4c\	4e/	4g/
2F\	2F\	2A/	2c/	2a/
=78	=78	=78	=78	=78
2.D\	2.D\	2.d\	2.f/	2.a/
4C/	4C/	4e\	4e/	4cc\
2G\	2G\	2d\	2g/	2b-\
=79	=79	=79	=79	=79
2.A\	2.A\	2.c\	2.e/	2.a/
4F\	4F\	4c\	4f/	4a/
2B-\	2B-\	2d\	2d/	2f/
=80	=80	=80	=80	=80
2.G\	2.G\	2.d\	1e	2.g/
4G\	4G\	4d\	.	4b-\
2A\	2A\	2c#\	2e/	2a/
=81	=81	=81	=81	=81
1.D	1.D	1.d	1.f#	1.a
=82	=82	=82	=82	=82
*clefC4	*met(C)	*met(C)	*met(C)	*met(C)
*met(C)	*M4/4	*M4/4	*M4/4	*M4/4
*M4/4	*	*	*	*
2d\	1r	2r	8r	4dd\
.	.	.	8d/L	.
.	.	.	8f/	8dd\L
.	.	.	8g/J	8dd\J
4.A\	.	8r	4a/	4.cc#\
.	.	8A/L	.	.
.	.	8A/	4e/	.
8A\	.	8A/J	.	8cc#\
=83	=83	=83	=83	=83
4B\	1r	4B/	4d/	8dd\L
.	.	.	.	8ee\
4c\	.	4c\	4a/	8cc\
.	.	.	.	8dd\J
4d\	.	4d\	4a/	4b\
4e\	.	4e\	4g#/	4b\
=84	=84	=84	=84	=84
*clefF4	*	*	*	*
4AA/	4AA/	4A/	2a/	2cc\
8C/L	8C/L	8A/L	.	.
8D/J	8D/J	8A/J	.	.
4E\	4E\	4.G/	2r	8r
.	.	.	.	8b\L
4E\	4E\	.	.	8ee\
.	.	8G#/	.	8dd\J
=85	=85	=85	=85	=85
4F\	4F\	4A/	2r	8cc\L
.	.	.	.	16dd\L
.	.	.	.	16ee\JJ
4D\	4D\	8d\L	.	8ff\L
.	.	8c\J	.	8ee\J
2G\	2G\	2B/	8r	2dd\
.	.	.	8d/L	.
.	.	.	8d/	.
.	.	.	8d/J	.
=86	=86	=86	=86	=86
8c\L	1r	8r	4e/	2cc\
8A\	.	8A/L	.	.
8A\	.	8A/	4f#/	.
8A\J	.	8A/J	.	.
4B\	.	4B/	4g/	2b\
4c#\	.	4c#\	8f#/L	.
.	.	.	8e/J	.
=87	=87	=87	=87	=87
4D\	4D\	4d\	2fn/	2a/
8F\L	8F\L	8d\L	.	.
8G\J	8G\J	8d\J	.	.
4A\	4A\	4.c#\	2e/	2r
4E\	4E\	.	.	.
.	.	8c#\	.	.
=88	=88	=88	=88	=88
4F#\	4F#\	8d\L	2r	1r
.	.	8e\	.	.
4F#\	4F#\	8c\	.	.
.	.	8d\J	.	.
2G\	2G\	8B/L	4g/	.
.	.	8G/	.	.
.	.	8B/	8g/L	.
.	.	8c/J	8g/J	.
=89	=89	=89	=89	=89
2D\	2D\	8d/L	4.f#/	2r
.	.	8A/	.	.
.	.	8d/	.	.
.	.	8c/J	8f#/	.
2G\	2G\	2B/	8g/L	4dd\
.	.	.	8a/	.
.	.	.	8fn/	8dd\L
.	.	.	8g/J	8dd\J
=90	=90	=90	=90	=90
2A\	2A\	2r	4e/	4.cc#\
.	.	.	8a/L	.
.	.	.	8g/J	8cc#\
2D\	2D\	4A/	2f/	8dd\L
.	.	.	.	8ee\
.	.	8A/L	.	8ccn\
.	.	8A/J	.	8dd\J
=91	=91	=91	=91	=91
2E\	2E\	4.G#/	2r	8b\L
.	.	.	.	16cc\L
.	.	.	.	16dd\JJ
.	.	.	.	8cc\L
.	.	8G#/	.	8b\J
2AA/	2AA/	4.A/	8r	2cc\
.	.	.	8A/L	.
.	.	.	8c/	.
.	.	8B/	8d/J	.
=92	=92	=92	=92	=92
2A\	2r	4c#\	4e/	8r
.	.	.	.	8ee\L
.	.	4A/	4c#/	8ee\
.	.	.	.	8ee\J
2D\	4D\	2A/	8d/L	4ff\
.	.	.	8d/	.
.	8D\L	.	8f/	4ff\
.	8D\J	.	8g/J	.
=93	=93	=93	=93	=93
4.C#/	4.C#/	2A/	4a/	2ee\
.	.	.	4e/	.
8C#/	8C#/	.	.	.
4D\	8D\L	4A/	4f/	8r
.	8E\	.	.	8a/L
4Cn/	8Cn\	[4A/	4e/	8a/
.	8D\J	.	.	8a/J
=94	=94	=94	=94	=94
2BB/	2BB/	4A/]	4d/	8b\L
.	.	.	.	8cc\
.	.	4G#/	4B/	8dd\
.	.	.	.	8ee\J
2AA/	2AA/	2A/	8r	2cc#\
.	.	.	8e/L	.
.	.	.	8e/	.
.	.	.	8e/J	.
=95	=95	=95	=95	=95
1AA	1AA	[1A	4f/	8r
.	.	.	.	8a/L
.	.	.	4e/	8g/
.	.	.	.	8a/J
.	.	.	4d/	8f/L
.	.	.	.	8g/J
.	.	.	4c#/	4e/
=96	=96	=96	=96	=96
0D	0D	0A]	0d	0f#
==	==	==	==	==
*-	*-	*-	*-	*-
!!!ENC: Craig Stuart Sapp
!!!END: 2004/12/14/
